X:1
T:[ID 1-126b]
T:[ID 1-126b]
T:Bezeichnung standardisiert: Sesken 6cke
T:Urheber unbekannt Datum in der hier transkribierten schriftlichen Quelle: vermutlich vor 1767
C:Urheber unbekannt
C:Datum in der hier transkribierten schriftlichen Quelle: vermutlich vor 1767
L:1/8
M:none
K:D
V:1 treble 
V:1
 A2 | d2 e2 f2 g2 | a4 b4 | a2 gf e2 f2 | g4 a4 | f2 ed c2 e2 | A6 :: f2 | e2 d2 c2 d2 | e6 f2 | %10
 e2 c2 defg | a6 b2 | a2 g2 f2 e2 | d2 c2 d2 e2 | f4 Te3 c | d6 :| %16

